X: 03006
T: BARRY'S BREAKDOWN
C: Bob McQuillen 6 Jan 77
B: Bob's Note Book 03 #6
%R: march, polka
%D:1977
Z: 2020 John Chambers <jc:trillian.mit.edu>
N: This might read better in 2/4 time, with all notes halved.
M: C
L: 1/4
K: D
A, \
| A,D DE | FD ED | CD E>F | E3 A, | A,E EF | GE CE | D>E F>G | F2 FG |
| AA A>F | BA A>B | AG GF | FE DE | F>E FG | FE DC | D4- | D3 ||
|| A \
| Ad de | fd ed | cd e>f | e3 A | Ae ef | ge ce | f>e fg | f2 fg |
| aa a>a | ba a>b | ag gf | fe de | f>g af | ge dc | d4- | d3 |]
%%begintext align
%% For my good friend and
%% fellow lifter, Barry Nielsen,
%% with fondest Best Wishes always.
%%endtext

%%sep 1 1 500

%%sep 1 1 500

